src/assets/outline/CardTick.svg

<svg width="24" height="24" viewBox="0 0 24 24"  xmlns="http://www.w3.org/2000/svg">
<path d="M13.5 9.25H2C1.59 9.25 1.25 8.91 1.25 8.5C1.25 8.09 1.59 7.75 2 7.75H13.5C13.91 7.75 14.25 8.09 14.25 8.5C14.25 8.91 13.91 9.25 13.5 9.25Z" />
<path d="M8 17.25H6C5.59 17.25 5.25 16.91 5.25 16.5C5.25 16.09 5.59 15.75 6 15.75H8C8.41 15.75 8.75 16.09 8.75 16.5C8.75 16.91 8.41 17.25 8 17.25Z" />
<path d="M14.5 17.25H10.5C10.09 17.25 9.75 16.91 9.75 16.5C9.75 16.09 10.09 15.75 10.5 15.75H14.5C14.91 15.75 15.25 16.09 15.25 16.5C15.25 16.91 14.91 17.25 14.5 17.25Z" />
<path d="M17.56 21.25H6.44C2.46 21.25 1.25 20.05 1.25 16.11V7.89C1.25 3.95 2.46 2.75 6.44 2.75H13.5C13.91 2.75 14.25 3.09 14.25 3.5C14.25 3.91 13.91 4.25 13.5 4.25H6.44C3.3 4.25 2.75 4.79 2.75 7.89V16.1C2.75 19.2 3.3 19.74 6.44 19.74H17.55C20.69 19.74 21.24 19.2 21.24 16.1V11.02C21.24 10.61 21.58 10.27 21.99 10.27C22.4 10.27 22.74 10.61 22.74 11.02V16.1C22.75 20.05 21.54 21.25 17.56 21.25Z" />
<path d="M17.9999 8.25C17.8099 8.25 17.6199 8.18 17.4699 8.03L15.9699 6.53C15.6799 6.24 15.6799 5.76 15.9699 5.47C16.2599 5.18 16.7399 5.18 17.0299 5.47L17.9999 6.44L21.4699 2.97C21.7599 2.68 22.2399 2.68 22.5299 2.97C22.8199 3.26 22.8199 3.74 22.5299 4.03L18.5299 8.03C18.3799 8.18 18.1899 8.25 17.9999 8.25Z" />
</svg>

<?xml version="1.0" encoding="UTF-8"?>
<svg width="24" height="24" viewBox="0 0 24 24" xmlns="http://www.w3.org/2000/svg">
 <path d="m13.5 9.25h-11.5c-0.41 0-0.75-0.34-0.75-0.75s0.34-0.75 0.75-0.75h11.5c0.41 0 0.75 0.34 0.75 0.75s-0.34 0.75-0.75 0.75z"/>
 <path d="m8 17.25h-2c-0.41 0-0.75-0.34-0.75-0.75s0.34-0.75 0.75-0.75h2c0.41 0 0.75 0.34 0.75 0.75s-0.34 0.75-0.75 0.75z"/>
 <path d="m14.5 17.25h-4c-0.41 0-0.75-0.34-0.75-0.75s0.34-0.75 0.75-0.75h4c0.41 0 0.75 0.34 0.75 0.75s-0.34 0.75-0.75 0.75z"/>
 <path d="m17.56 21.25h-11.12c-3.98 0-5.19-1.2-5.19-5.14v-8.22c0-3.94 1.21-5.14 5.19-5.14h7.06c0.41 0 0.75 0.34 0.75 0.75s-0.34 0.75-0.75 0.75h-7.06c-3.14 0-3.69 0.54-3.69 3.64v8.21c0 3.1 0.55 3.64 3.69 3.64h11.11c3.14 0 3.69-0.54 3.69-3.64v-5.08c0-0.41 0.34-0.75 0.75-0.75s0.75 0.34 0.75 0.75v5.08c0.01 3.95-1.2 5.15-5.18 5.15z"/>
 <path d="m18 8.25c-0.19 0-0.38-0.07-0.53-0.22l-1.5-1.5c-0.29-0.29-0.29-0.77 0-1.06s0.77-0.29 1.06 0l0.97 0.97 3.47-3.47c0.29-0.29 0.77-0.29 1.06 0s0.29 0.77 0 1.06l-4 4c-0.15 0.15-0.34 0.22-0.53 0.22z"/>
</svg>
